X: 29321
T: New Year's Luck
R: reel
M: 4/4
K: Cmajor
AD^FA d2 ed|cAGE CDEG|AD^FA d2 ed|cAGc Ad d2|
AD^FA d2 ed|cAGE CDEG|AGAB c2 ed|cAGE ED D2|
Adde f2 ed|cBce gcec|Ad d2 fded|cAGE ED D2|
Adde f2 ed|cBce gceg|a^fge d2 ed|cAGc Ad d2|

